icons/cursor-sqaure-alt.svg

<svg xmlns="http://www.w3.org/2000/svg" viewBox="0 0 24 24" fill="currentColor">
  <path d="M7.54827 7.52789c.27289-.27291.65196-.3919 1.01251-.3919h.09659l5.95493 1.55968.0699.03493c.2515.12574.5496.36681.6612.75751.127.44441-.0485.85239-.3285 1.13249l-4.2707 4.2705c-.2799.28-.6879.4556-1.13234.3286-.39073-.1116-.63181-.4097-.75757-.6612l-.03492-.0699-1.52042-5.8052c-.17405-.43704-.03059-.87559.24932-1.15551Zm1.31631 1.21296 1.22632 4.68235 3.456-3.45599-4.68232-1.22636Z"/>
  <path d="M11.7499 11.764c.2929-.2929.7678-.2929 1.0607 0l3.7196 3.7196c.2929.2929.2929.7677 0 1.0606-.2929.2929-.7678.2929-1.0607 0l-3.7196-3.7196c-.2929-.2929-.2928-.7677 0-1.0606Z"/>
  <path d="M2.25 2.25h19.5v19.5H2.25V2.25Zm1.5 1.5v16.5h16.5V3.75H3.75Z"/>
</svg>

<svg width="24" height="24" viewBox="0 0 24 24" fill="none" xmlns="http://www.w3.org/2000/svg">
<path fill-rule="evenodd" clip-rule="evenodd" d="M7.54827 7.52789C7.82116 7.25498 8.20023 7.13599 8.56078 7.13599H8.65737L14.6123 8.69567L14.6822 8.7306C14.9337 8.85634 15.2318 9.09741 15.3434 9.48811C15.4704 9.93252 15.2949 10.3405 15.0149 10.6206L10.7442 14.8911C10.4643 15.1711 10.0563 15.3467 9.61186 15.2197C9.22113 15.1081 8.98005 14.81 8.85429 14.5585L8.81937 14.4886L7.29895 8.6834C7.1249 8.24636 7.26836 7.80781 7.54827 7.52789ZM8.86458 8.74085L10.0909 13.4232L13.5469 9.96721L8.86458 8.74085Z" fill="black"/>
<path fill-rule="evenodd" clip-rule="evenodd" d="M11.7499 11.764C12.0428 11.4711 12.5177 11.4711 12.8106 11.764L16.5302 15.4836C16.8231 15.7765 16.8231 16.2513 16.5302 16.5442C16.2373 16.8371 15.7624 16.8371 15.4695 16.5442L11.7499 12.8246C11.457 12.5317 11.4571 12.0569 11.7499 11.764Z" fill="black"/>
<path fill-rule="evenodd" clip-rule="evenodd" d="M2.25 2.25H21.75V21.75H2.25V2.25ZM3.75 3.75V20.25H20.25V3.75H3.75Z" fill="black"/>
</svg>
